eacl_2014/include/semeval_refs_term_suite_1_2_3_grams.svg

<?xml version="1.0" encoding="UTF-8" standalone="no"?>
<svg
   xmlns:dc="http://purl.org/dc/elements/1.1/"
   xmlns:cc="http://creativecommons.org/ns#"
   xmlns:rdf="http://www.w3.org/1999/02/22-rdf-syntax-ns#"
   xmlns:svg="http://www.w3.org/2000/svg"
   xmlns="http://www.w3.org/2000/svg"
   xmlns:xlink="http://www.w3.org/1999/xlink"
   xmlns:sodipodi="http://sodipodi.sourceforge.net/DTD/sodipodi-0.dtd"
   xmlns:inkscape="http://www.inkscape.org/namespaces/inkscape"
   style="fill-opacity:1; color-rendering:auto; color-interpolation:auto; stroke:black; text-rendering:auto; stroke-linecap:square; stroke-miterlimit:10; stroke-opacity:1; shape-rendering:auto; fill:black; stroke-dasharray:none; font-weight:normal; stroke-width:1; font-family:'Dialog'; font-style:normal; stroke-linejoin:miter; font-size:12; stroke-dashoffset:0; image-rendering:auto;"
   id="svg2"
   version="1.1"
   inkscape:version="0.48.3.1 r9886"
   width="100%"
   height="100%"
   sodipodi:docname="semeval_refs_term_suite_1_2_3_grams.svg">
  <metadata
     id="metadata33">
    <rdf:RDF>
      <cc:Work
         rdf:about="">
        <dc:format>image/svg+xml</dc:format>
        <dc:type
           rdf:resource="http://purl.org/dc/dcmitype/StillImage" />
        <dc:title />
      </cc:Work>
    </rdf:RDF>
  </metadata>
  <sodipodi:namedview
     pagecolor="#ffffff"
     bordercolor="#666666"
     borderopacity="1"
     objecttolerance="10"
     gridtolerance="10"
     guidetolerance="10"
     inkscape:pageopacity="0"
     inkscape:pageshadow="2"
     inkscape:window-width="1855"
     inkscape:window-height="1056"
     id="namedview31"
     showgrid="false"
     inkscape:zoom="1.2685914"
     inkscape:cx="395.18855"
     inkscape:cy="739.12886"
     inkscape:window-x="65"
     inkscape:window-y="24"
     inkscape:window-maximized="1"
     inkscape:current-layer="svg2" />
  <!--Generated by the Batik Graphics2D SVG Generator-->
  <path
     d="m 614.8105,224.7958 c -8.088,0 -15.3399,3.5587 -18.8848,10.1298 -5.6226,10.423 0.2107,24.4781 13.0292,31.393 4.7371,2.5554 9.7651,3.7781 14.5059,3.7781 8.0879,0 15.3399,-3.5586 18.8847,-10.1298 5.6227,-10.4229 -0.2107,-24.478 -13.0292,-31.393 -4.737,-2.5554 -9.765,-3.7781 -14.5058,-3.7781 z"
     style="fill:#000000;fill-opacity:1;stroke:#000000;stroke-opacity:1"
     id="path19"
     inkscape:connector-curvature="0" />
  <defs
     id="genericDefs">
    <defs
       id="defs1">
      <pattern
         patternUnits="userSpaceOnUse"
         y="0.5"
         height="11"
         id="pattern1"
         x="0"
         width="11.5">
        <image
           id="image9"
           xlink:href="data:image/png;base64,iVBORw0KGgoAAAANSUhEUgAAAAsAAAALCAYAAACprHcmAAAAUElEQVR42mP8DwQM RADGKY0MTMQq/J9TT5xiGGAhZCIIgEzFqxhmNV6TTwBxamMJg8XPf4SdYQmyWpgX w1QMxdisxlCM7hFcgLSgI2Q1MgAAVdYe34Vnaa0AAAAASUVORK5CYII="
           height="11"
           y="0"
           width="11"
           x="0"
           preserveAspectRatio="none" />
      </pattern>
    </defs>
  </defs>
  <path
     style="fill:#000000;fill-opacity:0.50196078000000000;stroke:#ffffff;stroke-opacity:1;stroke-width:2;stroke-miterlimit:10;stroke-dasharray:none"
     d="m 537.8568,230.0167 c -67.116,0 -124.5501,44.6617 -132.7426,106.7058 -8.9994,68.1556 44.8294,131.4777 120.2302,141.4338 6.7612,0.8928 13.4663,1.3262 20.0774,1.3262 67.116,0 124.5501,-44.6617 132.7426,-106.7058 8.9994,-68.1556 -44.8294,-131.4777 -120.2301,-141.4338 -6.7613,-0.8928 -13.4664,-1.3262 -20.0775,-1.3262 z"
     id="path27"
     inkscape:connector-curvature="0" />
  <path
     d="m 341.5405,27.5249 c -104.7556,0 -206.3771,55.3188 -260.859,153.3837 -79.9569,143.9192 -28.1053,325.4065 115.8138,405.3635 45.8541,25.4751 95.5219,37.57 144.5045,37.57 104.7555,0 206.3771,-55.3188 260.8589,-153.3838 C 681.8157,326.5392 629.9641,145.0518 486.045,65.0949 440.1908,39.6198 390.523,27.5249 341.5405,27.5249 z"
     style="fill:none;fill-opacity:0.25098039000000000;stroke:#000000;stroke-width:1;stroke-miterlimit:10;stroke-opacity:1;stroke-dasharray:none"
     id="path29"
     inkscape:connector-curvature="0" />
  <path
     d="m 307.64464,171.77939 c -104.7556,0 36.41187,10.38707 -18.07003,108.45197 -79.9569,143.9192 -236.99841,31.3796 -93.07931,111.3366 45.8541,25.4751 30.095,47.81758 79.0776,47.81758 104.7555,0 216.62463,179.98152 271.10649,81.91655 1.06425,-1.91561 57.28447,-54.68167 58.30211,-56.61026 40.18114,-76.14953 44.10229,-162.16421 17.53224,-237.85252 -23.31354,-66.41172 -327.86835,86.38472 -337.47909,97.59836 -34.1357,39.82891 71.59249,-152.65828 22.60999,-152.65828 z"
     style="font-size:12px;font-style:normal;font-weight:normal;fill:none;stroke:#ffffff;stroke-width:2;stroke-linecap:square;stroke-linejoin:miter;stroke-miterlimit:10;stroke-opacity:1;stroke-dasharray:none;stroke-dashoffset:0;font-family:Dialog"
     id="path29-7"
     inkscape:connector-curvature="0"
     sodipodi:nodetypes="sssssssss" />
</svg>

<?xml version="1.0" encoding="UTF-8" standalone="no"?>
<svg
   xmlns:dc="http://purl.org/dc/elements/1.1/"
   xmlns:cc="http://creativecommons.org/ns#"
   xmlns:rdf="http://www.w3.org/1999/02/22-rdf-syntax-ns#"
   xmlns:svg="http://www.w3.org/2000/svg"
   xmlns="http://www.w3.org/2000/svg"
   xmlns:xlink="http://www.w3.org/1999/xlink"
   xmlns:sodipodi="http://sodipodi.sourceforge.net/DTD/sodipodi-0.dtd"
   xmlns:inkscape="http://www.inkscape.org/namespaces/inkscape"
   style="fill-opacity:1; color-rendering:auto; color-interpolation:auto; stroke:black; text-rendering:auto; stroke-linecap:square; stroke-miterlimit:10; stroke-opacity:1; shape-rendering:auto; fill:black; stroke-dasharray:none; font-weight:normal; stroke-width:1; font-family:'Dialog'; font-style:normal; stroke-linejoin:miter; font-size:12; stroke-dashoffset:0; image-rendering:auto;"
   id="svg2"
   version="1.1"
   inkscape:version="0.48.3.1 r9886"
   width="100%"
   height="100%"
   sodipodi:docname="semeval_refs_term_suite_1_2_3_grams.svg">
  <metadata
     id="metadata33">
    <rdf:RDF>
      <cc:Work
         rdf:about="">
        <dc:format>image/svg+xml</dc:format>
        <dc:type
           rdf:resource="http://purl.org/dc/dcmitype/StillImage" />
        <dc:title />
      </cc:Work>
    </rdf:RDF>
  </metadata>
  <sodipodi:namedview
     pagecolor="#ffffff"
     bordercolor="#666666"
     borderopacity="1"
     objecttolerance="10"
     gridtolerance="10"
     guidetolerance="10"
     inkscape:pageopacity="0"
     inkscape:pageshadow="2"
     inkscape:window-width="1855"
     inkscape:window-height="1056"
     id="namedview31"
     showgrid="false"
     inkscape:zoom="0.89702957"
     inkscape:cx="1.7474023"
     inkscape:cy="694.36001"
     inkscape:window-x="65"
     inkscape:window-y="24"
     inkscape:window-maximized="1"
     inkscape:current-layer="svg2" />
  <!--Generated by the Batik Graphics2D SVG Generator-->
  <defs
     id="genericDefs" />
  <g
     id="g5">
    <defs
       id="defs1">
      <pattern
         width="11.5"
         x="0"
         id="pattern1"
         height="11"
         y="0.5"
         patternUnits="userSpaceOnUse">
        <image
           preserveAspectRatio="none"
           x="0"
           width="11"
           y="0"
           height="11"
           xlink:href="data:image/png;base64,iVBORw0KGgoAAAANSUhEUgAAAAsAAAALCAYAAACprHcmAAAAUElEQVR42mP8DwQM RADGKY0MTMQq/J9TT5xiGGAhZCIIgEzFqxhmNV6TTwBxamMJg8XPf4SdYQmyWpgX w1QMxdisxlCM7hFcgLSgI2Q1MgAAVdYe34Vnaa0AAAAASUVORK5CYII="
           id="image9" />
      </pattern>
    </defs>
    <g
       style="fill:white; text-rendering:optimizeLegibility; stroke:white;"
       id="g11" />
    <g
       style="fill:rgb(233,130,108); text-rendering:optimizeLegibility; fill-opacity:0.502; stroke-opacity:0.502; stroke:rgb(233,130,108);"
       id="g15">
      <path
         d="M614.8105 224.7958 C606.7225 224.7958 599.4706 228.3545 595.9257 234.9256 C590.3031 245.3486 596.1364 259.4037 608.9549 266.3186 C613.692 268.874 618.72 270.0967 623.4608 270.0967 C631.5487 270.0967 638.8007 266.5381 642.3455 259.9669 C647.9682 249.544 642.1348 235.4889 629.3163 228.5739 C624.5793 226.0185 619.5513 224.7958 614.8105 224.7958 Z"
         style="fill:none;stroke:#000000;stroke-opacity:1;fill-opacity:1"
         id="path19" />
    </g>
    <g
       style="fill:url(#pattern1); text-rendering:optimizeLegibility; stroke:url(#pattern1);"
       id="g21" />
    <g
       style="fill:rgb(0,147,128); text-rendering:optimizeLegibility; fill-opacity:0.502; stroke-opacity:0.502; stroke:rgb(0,147,128);"
       id="g25">
      <path
         style="fill:none;fill-opacity:0.80000000999999998;stroke:#000000;stroke-opacity:1"
         d="M537.8568 230.0167 C470.7408 230.0167 413.3067 274.6784 405.1142 336.7225 C396.1148 404.8781 449.9436 468.2002 525.3444 478.1563 C532.1056 479.0491 538.8107 479.4825 545.4218 479.4825 C612.5378 479.4825 669.9719 434.8208 678.1644 372.7767 C687.1638 304.6211 633.335 241.299 557.9343 231.3429 C551.173 230.4501 544.4679 230.0167 537.8568 230.0167 Z"
         id="path27" />
      <path
         d="M341.5405 27.5249 C236.7849 27.5249 135.1634 82.8437 80.6815 180.9086 C0.7246 324.8278 52.5762 506.3151 196.4953 586.2721 C242.3494 611.7472 292.0172 623.8421 340.9998 623.8421 C445.7553 623.8421 547.3769 568.5233 601.8587 470.4583 C681.8157 326.5392 629.9641 145.0518 486.045 65.0949 C440.1908 39.6198 390.523 27.5249 341.5405 27.5249 Z"
         style="fill:none;stroke-width:1;stroke:#000000;fill-opacity:0.53333335999999998;stroke-opacity:1;stroke-miterlimit:10;stroke-dasharray:none"
         id="path29" />
    </g>
  </g>
</svg>
